X: 4237
T: PADDY'S WEDDING
%R: jig
B: James Kerr "Merry Melodies" v.4 p.26 #237
Z: 2016 John Chambers <jc:trillian.mit.edu>
M: 6/8
L: 1/8
K: F
c !segno!|\
A2B c2f | A2B c2c | d2d g2f | e2d c2B |\
A2B c2f | A2B c2c | fef gfg | a2f f2 H:]
a |\
g2f e2d | e2f g2a | g2f e2d | c2B A2a |\
g2f e2d | e2f g2a | gag fed | cdc BAG !segno!|]

%%sep 1 1 500
%%sep 1 1 500

